X:1
T:Title
%%score { 1 | 2 }
L:1/8
Q:1/4=96
M:4/4
K:Ab
V:1 treble nm="Grand Piano"
V:2 bass 
V:1
 [CE][CE][DF][CE] [Ec]2 [Ec]2 | BA A>F [CE]4 | EEFE d2 d2 | [Fd][Fc][=DF][Dc] [EB]4 | %4
w: James~McGranahan * * * * *||||
 [Gc][Gd][Gc]G B2 A2 | ABAE [E_G]4 | [EG][DF][Fd][Ec] [_Ge][Fd][EA][FB] | c2 B2 [CA]4 | %8
w: ||||
 cccB A2 FA | [=Ec]2 [Ec]>[CEB] [CFA]4 | [=DFB][DFB][DFB][B,DA] [B,EG]2 [EGB][EGB] | %11
w: |||
 [EAc]2 [A=d]>[Ad] [Ge]2 [Ge]>[EG_d] | .[EAc]2 .[CEA]2 .[CE]2 z .[CE] | %13
w: ||
 .[Ed]2 .[DB]2 .[DG]2 [DF][DE] | [CA]2 [DB][Fd] c c2 B |[M:3/4] [CA]6 |] %16
w: |||
V:2
 [A,,A,][A,,A,][A,,A,][A,,A,] [A,,A,]2 [A,,A,]2 | [D,F,D][D,F,D] [D,F,D]>[D,A,D] [A,,A,]4 | %2
 [A,C][A,C][A,D][A,C] [E,G,E]2 [E,G,E]2 | [B,,A,][B,,A,][B,,A,][B,,A,] [E,G,]4 | %4
 [=E,C][E,C][E,C][E,C] [F,CF]2 [F,CF]2 | [F,A,C][=E,G,C][F,A,C][C,A,] [C,A,]4 | %6
 [D,A,][D,A,][A,,A,][A,,A,] [A,,A,][B,,A,][C,A,][D,A,] | [E,A,E]2 [E,D]2 [A,,E,]4 | %8
 [A,E][A,E][G,C=E][G,CE] [F,CF]2 [F,A,C][F,A,C] | [C,G,]2 [C,G,]>C, F,4 | B,,B,,B,,B,, E,2 E,E, | %11
 A,,2 [B,,B,]>[B,,B,] [E,B,]2 [E,B,]>E, | A,,2 A,,2 [A,,A,]2 z [A,,A,] | %13
 [E,G,]2 [E,G,]2 [E,B,]2 [E,B,][E,G,] | [A,,A,]2 [D,F,][D,A,] [E,A,E] [E,A,E]2 [E,D] | %15
[M:3/4] [A,,E,]6 |] %16

